X:1591
T:Jerry Daly's Hornpipe
R:hornpipe
N:"2nd Setting" "Collected by F. O'Neill"
B:O'Neill's 1591
Z:Transcribed by Michael Hogan
M:C|
L:1/8
K:A
ed|c2 Bc ABcA|GFEF GABd|egfa gedc|B2 G2 G2 ed|
c2 Bc ABcA|GFEF GABd|egfa gedB|A2 A2 A2 :|
|: e2|agab aged|B2 G2 G2 ef|agfga gfed|e2 a2 a2 ed|
c2 Bc ABcA|GFEF GABd|egfa gedB|A2 A2 A2 :|
